X:42
T:Gyvataras
C:Traditional
O:Lithuania
Z:Bert Van Vreckem, 2001-08-11 <http://flanders.blackmill.net/music/>
Z:Transcribed from a recording by Bert Blancquaert and Hilde Raskin (2001-08-09, Dworp, Flanders),
Z:performed by Edvinas Vilkas and Lina Duduliene
M:2/4
L:1/8
K:G
"G"dd e/d/c|dd d2|dd e/d/c|"D7"dA A>B|AB cd|ff f>e|dc BA|"G"G2 G2:|
|:"G"Gd de|d4|Gd de|d4|d2 "C"e2|"G"d2 "D7"c2|dc BA|"G"G2 G2:|

